X: 13
T: No_108_Song_with_Gift_of_a_Pony.krn
N: Derived from No_108_Song_with_Gift_of_a_Pony.krn
%%abc-version 2.0
%%abcx-abcm2ps-target-version 5.9.1 (29 Sep 2008)
%%abc-creator hum2abc beta
%%abcx-conversion-date 2019/03/15 08:35:44
%%humdrum-veritas 3864286181
%%humdrum-veritas-data 4089378051
%%linebreak <none>
%%barnumbers 0
L: 1/8
M: 3/4
K: Eb clef=bass
[K:clef=bass][M:3/4]CC C3/B,/B,2 | 
B,B, B,3/B,/ B, z | 
B,B, A,3/F,/E,2 | 
F,E, C,3/B,,/ B,,B,, ||  
[M:2/4]B,,2B,,B,, | 
B,,3/B,,/ B,,B,, ||  
[M:3/4]B,,4B,, z | 
B,B, B,3/B,/B,2 | 
B,B, A,3/F,/E,2 | 
F,E, C,3/B,,/ B,,B,, ||  
[M:2/4]B,,2B,,B,, | 
B,,3/B,,/ B,,B,, ||  
[M:3/4]B,,4B,, z |]  



